X:1
T:James Gibb editions
T:Son questi i crespi crini - Monteverdi
%%score [ 1 2 3 ]
L:1/8
Q:1/4=121
M:4/4
K:D
V:1 treble nm="Soprano" snm="S"
V:2 treble nm="Alto" snm="A"
V:3 treble-8 nm="Tenor" snm="T"
V:1
"^Son questi i crespi crini""^Claudio Monteverdi\n(1567-1643)" z8 | z8 | e4 d2 B2 | %3
w: ||Son que- sti~~i|
[M:4/4] =c2 c2 B2 B2 | B2 G2 A4 | B2 G2 G2 G2 | B6 A2 | F4 F4 | z2 d6 | e2 =c2 d2 B2 | A4 B4 | %11
w: cre- spi cri- ni~~e|que- sto~~il vi-|so On- d'io ri-|man- go~~uc-|ci- so,|Deh,|di- me- lo ben|mi- o,|
 z2 G2 F2 E2 | ^D2 E2 F4 | E8 :| %14
w: che que- sto|sol de- si-|o.|
V:2
 B4 A2 F2 | G2 G2 F2 B2 | (EFGA B2) ^G2 |[M:4/4] A4 !courtesy!=G2 G2 | G2 G2 F4 | G2 E2 E2 E2 | %6
w: Son que- sti~~i|cre- spi cri- ni~~e|que\- * * * * sto~~il|vi- so e|que- sto~~il vi-|so On- d'io ri-|
 G6 E2 | ^D4 D4 | z2 B6 | G2 A2 F2 G2 | F4 G2 G2 | F2 E2 ^D2 E2 | (F2 E3 ^D/C/ D2) | E8 :| %14
w: man- go~~uc-|ci- so,|Deh,|di- me- lo ben|mi- o, che|que- sto sol de-|si\- * * * *|o.|
V:3
 z8 | e4 d2 B2 | =c2 c2 B2 e2 |[M:4/4][K:treble-8] (AB=cd e2) e2 | (g2 fe d4) | G2 =c2 c2 c2 | %6
w: |Son que- sti~~i|cre- spi cri- ni~~e|que\- * * * * sto~~il|vi\- * * *|so On- d'io ri-|
 G6 A2 | B4 B4 | z2 G6 | =c2 A2 B3 c | d4 G2 E2 | ^D2 E2 B2 =c2 | B8 | E8 :| %14
w: man- go~~uc-|ci- so,|Deh,|di- me- lo ben|mi- o, che|que- sto sol de-|si-|o.|

